wwr/images/insta.svg

<svg clip-rule="evenodd" fill-rule="evenodd" stroke-linejoin="round" stroke-miterlimit="2" viewBox="0 0 512 512" xmlns="http://www.w3.org/2000/svg"><g stroke="#000"><g stroke-linecap="round"><path d="m362.065 192.263c0-12.661-4.825-24.178-12.694-32.728-8.512-9.25-17.969-17.279-17.969-17.279l-95.507 2.25c-25.755 0-46.666 21.399-46.666 47.757l-.815 99.481s5.962 6.812 14.293 15.44c8.462 8.763 20.21 14.197 33.188 14.197h79.504c25.756 0 46.666-21.399 46.666-47.756z" fill="#fff" stroke-miterlimit="1.5" stroke-width="3.78" transform="matrix(2.7291727518 0 0 2.6668477449 -482.13712335 -351.07559679)"/><path d="m362.065 192.263c0-26.358-20.91-47.757-46.666-47.757h-79.504c-25.755 0-46.666 21.399-46.666 47.757v81.362c0 26.357 20.911 47.756 46.666 47.756h79.504c25.756 0 46.666-21.399 46.666-47.756z" fill="#fff" stroke-miterlimit="1.5" stroke-width="3.78" transform="matrix(2.7291727518 0 0 2.6668477449 -510.4395489 -379.37596473)"/><ellipse cx="306.761" cy="172.815" rx="4.446" ry="8.315" stroke-miterlimit="1.5" stroke-width="4.26" transform="matrix(2.9840283264 0 0 1.59539672004 -543.76871568 -162.069303498)"/><circle cx="241.17409410703" cy="242.52263203028" fill="#fff" r="109.16384987095" stroke-miterlimit="1.5" stroke-width="10.19696536661"/><path d="m168.968 58.04 9.754 9.679" fill="none" stroke-linejoin="miter" stroke-miterlimit="5" stroke-width="3.5" transform="matrix(2.9118473676 0 0 2.9118473676 -44.924833695 264.12921711)"/><path d="m169.255 58.327 9.643 9.866" fill="none" stroke-linejoin="miter" stroke-miterlimit="5" stroke-width="3.5" transform="matrix(2.9118473676 0 0 2.9118473676 -29.132471184 238.54489437)"/><path d="m168.853 57.925 9.675 9.92" fill="none" stroke-linejoin="miter" stroke-miterlimit="5" stroke-width="3.5" transform="matrix(2.9118473676 0 0 2.9118473676 -17.056975377 209.6004945)"/><path d="m168.757 57.829 9.72 9.963" fill="none" stroke-linejoin="miter" stroke-miterlimit="5" stroke-width="3.5" transform="matrix(2.9118473676 0 0 2.9118473676 -13.6985031828 174.940259811)"/><path d="m168.847 57.885 9.63 9.887" fill="none" stroke-linejoin="miter" stroke-miterlimit="5" stroke-width="3.5" transform="matrix(2.9118473676 0 0 2.9118473676 -13.6985031828 140.280025122)"/><path d="m168.847 57.885 9.63 9.887" fill="none" stroke-linejoin="miter" stroke-miterlimit="5" stroke-width="3.5" transform="matrix(2.9118473676 0 0 2.9118473676 -13.6985031828 107.619581592)"/><path d="m168.756 57.792 9.721 10.003" fill="none" stroke-linejoin="miter" stroke-miterlimit="5" stroke-width="3.5" transform="matrix(2.9118473676 0 0 2.9118473676 -13.6985031828 72.959346903)"/><path d="m168.847 57.885 9.63 9.887" fill="none" stroke-linejoin="miter" stroke-miterlimit="5" stroke-width="3.5" transform="matrix(2.9118473676 0 0 2.9118473676 -13.6985031828 38.298906453)"/><path d="m168.756 57.828 9.721 9.964" fill="none" stroke-linejoin="miter" stroke-miterlimit="5" stroke-width="3.5" transform="matrix(2.9118473676 0 0 2.9118473676 -13.6985031828 2.9971295421)"/><path d="m168.756 57.792 9.721 10.003" fill="none" stroke-linejoin="miter" stroke-miterlimit="5" stroke-width="3.5" transform="matrix(2.9118473676 0 0 2.9118473676 -13.6985031828 -31.606541448)"/><path d="m168.854 57.892 9.824 10.11" fill="none" stroke-linejoin="miter" stroke-miterlimit="5" stroke-width="3.5" transform="matrix(2.9118473676 0 0 2.9118473676 -18.4154712273 -68.62541448)"/><path d="m168.666 57.738 9.591 9.814" fill="none" stroke-linejoin="miter" stroke-miterlimit="5" stroke-width="3.5" transform="matrix(2.9118473676 0 0 2.9118473676 -64.943732907 284.50572894)"/><path d="m168.989 58.031 9.277 9.53" fill="none" stroke-linejoin="miter" stroke-miterlimit="5" stroke-width="3.5" transform="matrix(2.9118473676 0 0 2.9118473676 -87.887113212 297.93986463)"/><path d="m168.979 58.021 9.487 9.764" fill="none" stroke-linejoin="miter" stroke-miterlimit="5" stroke-width="3.5" transform="matrix(2.9118473676 0 0 2.9118473676 -117.113405652 306.37400802)"/><path d="m168.984 58.027 9.445 9.719" fill="none" stroke-linejoin="miter" stroke-miterlimit="5" stroke-width="3.5" transform="matrix(2.9118473676 0 0 2.9118473676 -150.415206219 308.73202908)"/><path d="m168.909 58.027 9.577 9.719" fill="none" stroke-linejoin="miter" stroke-miterlimit="5" stroke-width="3.58" transform="matrix(2.7888022896 0 0 2.9118473676 -161.798727783 308.73202908)"/><path d="m168.955 58.027 9.496 9.719" fill="none" stroke-linejoin="miter" stroke-miterlimit="5" stroke-width="3.5" transform="matrix(2.9118473676 0 0 2.9118473676 -215.3782749 308.73202908)"/><path d="m168.955 58.027 9.476 9.719" fill="none" stroke-linejoin="miter" stroke-miterlimit="5" stroke-width="3.5" transform="matrix(2.9118473676 0 0 2.9118473676 -250.69715055 308.73202908)"/><path d="m168.955 58.027 9.476 9.719" fill="none" stroke-linejoin="miter" stroke-miterlimit="5" stroke-width="3.5" transform="matrix(2.9118473676 0 0 2.9118473676 -284.99956686 308.73202908)"/><path d="m168.955 58.027 9.476 9.719" fill="none" stroke-linejoin="miter" stroke-miterlimit="5" stroke-width="3.5" transform="matrix(2.9118473676 0 0 2.9118473676 -320.66000577 308.73202908)"/><path d="m168.955 58.027 9.496 9.719" fill="none" stroke-linejoin="miter" stroke-miterlimit="5" stroke-width="3.5" transform="matrix(2.9118473676 0 0 2.9118473676 -353.3204493 308.73202908)"/></g><path d="m170 59.072 7.667 7.89" fill="none" stroke-linejoin="miter" stroke-miterlimit="5" stroke-width="2.73" transform="matrix(3.7381012392 0 0 3.7381012392 -530.98478475 253.33087983)"/><path d="m170 59.072 7.667 7.89" fill="none" stroke-linejoin="miter" stroke-miterlimit="5" stroke-width="4.85" transform="matrix(2.0723219115 .36709614249 -.36709614249 2.0723219115 -250.67657445 281.66005431)"/></g></svg>

<?xml version="1.0" ?><!DOCTYPE svg  PUBLIC '-//W3C//DTD SVG 1.1//EN'  'http://www.w3.org/Graphics/SVG/1.1/DTD/svg11.dtd'><svg height="100%" style="fill-rule:evenodd;clip-rule:evenodd;stroke-linejoin:round;stroke-miterlimit:2;" version="1.1" viewBox="0 0 512 512" width="100%" xml:space="preserve" xmlns="http://www.w3.org/2000/svg" xmlns:serif="http://www.serif.com/" xmlns:xlink="http://www.w3.org/1999/xlink"><g transform="matrix(2.05761,0,0,2.05761,-1.20165,-3.25926)"><g transform="matrix(1.32638,0,0,1.29609,-233.735,-169.039)"><path d="M362.065,192.263C362.065,179.602 357.24,168.085 349.371,159.535C340.859,150.285 331.402,142.256 331.402,142.256L235.895,144.506C210.14,144.506 189.229,165.905 189.229,192.263L188.414,291.744C188.414,291.744 194.376,298.556 202.707,307.184C211.169,315.947 222.917,321.381 235.895,321.381L315.399,321.381C341.155,321.381 362.065,299.982 362.065,273.625L362.065,192.263Z" style="fill:white;stroke:black;stroke-width:3.78px;stroke-linecap:round;stroke-miterlimit:1.5;"/></g><g transform="matrix(1.32638,0,0,1.29609,-247.49,-182.793)"><path d="M362.065,192.263C362.065,165.905 341.155,144.506 315.399,144.506L235.895,144.506C210.14,144.506 189.229,165.905 189.229,192.263L189.229,273.625C189.229,299.982 210.14,321.381 235.895,321.381L315.399,321.381C341.155,321.381 362.065,299.982 362.065,273.625L362.065,192.263Z" style="fill:white;stroke:black;stroke-width:3.78px;stroke-linecap:round;stroke-miterlimit:1.5;"/></g><g transform="matrix(1.45024,0,0,0.775364,-263.688,-77.1818)"><ellipse cx="306.761" cy="172.815" rx="4.446" ry="8.315" style="stroke:black;stroke-width:4.26px;stroke-linecap:round;stroke-miterlimit:1.5;"/></g><g transform="matrix(1.44062,0,0,1.44062,-312.795,-146.422)"><circle cx="298.892" cy="184.554" r="36.827" style="fill:white;stroke:black;stroke-width:3.44px;stroke-linecap:round;stroke-miterlimit:1.5;"/></g><g transform="matrix(1.41516,0,0,1.41516,-21.2495,129.951)"><path d="M168.968,58.04L178.722,67.719" style="fill:none;stroke:black;stroke-width:3.5px;stroke-linecap:round;stroke-linejoin:miter;stroke-miterlimit:5;"/></g><g transform="matrix(1.41516,0,0,1.41516,-13.5744,117.517)"><path d="M169.255,58.327L178.898,68.193" style="fill:none;stroke:black;stroke-width:3.5px;stroke-linecap:round;stroke-linejoin:miter;stroke-miterlimit:5;"/></g><g transform="matrix(1.41516,0,0,1.41516,-7.7057,103.45)"><path d="M168.853,57.925L178.528,67.845" style="fill:none;stroke:black;stroke-width:3.5px;stroke-linecap:round;stroke-linejoin:miter;stroke-miterlimit:5;"/></g><g transform="matrix(1.41516,0,0,1.41516,-6.07348,86.6051)"><path d="M168.757,57.829L178.477,67.792" style="fill:none;stroke:black;stroke-width:3.5px;stroke-linecap:round;stroke-linejoin:miter;stroke-miterlimit:5;"/></g><g transform="matrix(1.41516,0,0,1.41516,-6.07348,69.7602)"><path d="M168.847,57.885L178.477,67.772" style="fill:none;stroke:black;stroke-width:3.5px;stroke-linecap:round;stroke-linejoin:miter;stroke-miterlimit:5;"/></g><g transform="matrix(1.41516,0,0,1.41516,-6.07348,53.8872)"><path d="M168.847,57.885L178.477,67.772" style="fill:none;stroke:black;stroke-width:3.5px;stroke-linecap:round;stroke-linejoin:miter;stroke-miterlimit:5;"/></g><g transform="matrix(1.41516,0,0,1.41516,-6.07348,37.0423)"><path d="M168.756,57.792L178.477,67.795" style="fill:none;stroke:black;stroke-width:3.5px;stroke-linecap:round;stroke-linejoin:miter;stroke-miterlimit:5;"/></g><g transform="matrix(1.41516,0,0,1.41516,-6.07348,20.1973)"><path d="M168.847,57.885L178.477,67.772" style="fill:none;stroke:black;stroke-width:3.5px;stroke-linecap:round;stroke-linejoin:miter;stroke-miterlimit:5;"/></g><g transform="matrix(1.41516,0,0,1.41516,-6.07348,3.04061)"><path d="M168.756,57.828L178.477,67.792" style="fill:none;stroke:black;stroke-width:3.5px;stroke-linecap:round;stroke-linejoin:miter;stroke-miterlimit:5;"/></g><g transform="matrix(1.41516,0,0,1.41516,-6.07348,-13.7768)"><path d="M168.756,57.792L178.477,67.795" style="fill:none;stroke:black;stroke-width:3.5px;stroke-linecap:round;stroke-linejoin:miter;stroke-miterlimit:5;"/></g><g transform="matrix(1.41516,0,0,1.41516,-8.36593,-31.768)"><path d="M168.854,57.892L178.678,68.002" style="fill:none;stroke:black;stroke-width:3.5px;stroke-linecap:round;stroke-linejoin:miter;stroke-miterlimit:5;"/></g><g transform="matrix(1.41516,0,0,1.41516,-30.9787,139.854)"><path d="M168.666,57.738L178.257,67.552" style="fill:none;stroke:black;stroke-width:3.5px;stroke-linecap:round;stroke-linejoin:miter;stroke-miterlimit:5;"/></g><g transform="matrix(1.41516,0,0,1.41516,-42.1292,146.383)"><path d="M168.989,58.031L178.266,67.561" style="fill:none;stroke:black;stroke-width:3.5px;stroke-linecap:round;stroke-linejoin:miter;stroke-miterlimit:5;"/></g><g transform="matrix(1.41516,0,0,1.41516,-56.3332,150.482)"><path d="M168.979,58.021L178.466,67.785" style="fill:none;stroke:black;stroke-width:3.5px;stroke-linecap:round;stroke-linejoin:miter;stroke-miterlimit:5;"/></g><g transform="matrix(1.41516,0,0,1.41516,-72.5179,151.628)"><path d="M168.984,58.027L178.429,67.746" style="fill:none;stroke:black;stroke-width:3.5px;stroke-linecap:round;stroke-linejoin:miter;stroke-miterlimit:5;"/></g><g transform="matrix(1.35536,0,0,1.41516,-78.0503,151.628)"><path d="M168.909,58.027L178.486,67.746" style="fill:none;stroke:black;stroke-width:3.58px;stroke-linecap:round;stroke-linejoin:miter;stroke-miterlimit:5;"/></g><g transform="matrix(1.41516,0,0,1.41516,-104.09,151.628)"><path d="M168.955,58.027L178.451,67.746" style="fill:none;stroke:black;stroke-width:3.5px;stroke-linecap:round;stroke-linejoin:miter;stroke-miterlimit:5;"/></g><g transform="matrix(1.41516,0,0,1.41516,-121.255,151.628)"><path d="M168.955,58.027L178.431,67.746" style="fill:none;stroke:black;stroke-width:3.5px;stroke-linecap:round;stroke-linejoin:miter;stroke-miterlimit:5;"/></g><g transform="matrix(1.41516,0,0,1.41516,-137.926,151.628)"><path d="M168.955,58.027L178.431,67.746" style="fill:none;stroke:black;stroke-width:3.5px;stroke-linecap:round;stroke-linejoin:miter;stroke-miterlimit:5;"/></g><g transform="matrix(1.41516,0,0,1.41516,-155.257,151.628)"><path d="M168.955,58.027L178.431,67.746" style="fill:none;stroke:black;stroke-width:3.5px;stroke-linecap:round;stroke-linejoin:miter;stroke-miterlimit:5;"/></g><g transform="matrix(1.41516,0,0,1.41516,-171.13,151.628)"><path d="M168.955,58.027L178.451,67.746" style="fill:none;stroke:black;stroke-width:3.5px;stroke-linecap:round;stroke-linejoin:miter;stroke-miterlimit:5;"/></g><g transform="matrix(1.81672,0,0,1.81672,-257.475,124.703)"><path d="M170,59.072L177.667,66.962" style="fill:none;stroke:black;stroke-width:2.73px;stroke-linejoin:miter;stroke-miterlimit:5;"/></g><g transform="matrix(1.00715,0.178409,-0.178409,1.00715,-121.245,138.471)"><path d="M170,59.072L177.667,66.962" style="fill:none;stroke:black;stroke-width:4.85px;stroke-linejoin:miter;stroke-miterlimit:5;"/></g></g></svg>
